!!!COM: Music21
!!!OTL: march_John-Barleycorn
!!!OMV: march_John-Barleycorn
**kern
*clefG2
*k[f#c#]
*
*M4/4
=1
8eL
8gJ
=
4a
8aL
8gJ
4e
4e
=
4g
8gL
8aJ
4b
8bL
8gJ
=
4a
8aL
8gJ
4e
4e
=
2.e
8bL
8aJ
=
4a
8aL
8gJ
4e
8eL
8f#J
=
4g
4a
4b
8aL
8gJ
=
4a
8aL
8gJ
4e
4e
=
2.e
8eL
8f#J
=
4g
4a
8bL
8cc#J
8ddL
8bJ
=
8eeL
8eeJ
4ee
4ee
8bL
8cc#J
=
4dd
4dd
4ee
4a
=
2.b
8cc#L
8bJ
=
4a
8aL
8gJ
4e
8eL
8f#J
=
4g
4a
4b
8aL
8gJ
=
4a
8aL
8gJ
4e
4e
=
2.e
4ryy
=||
4a
8aL
8gJ
4e
4e
=
4g
8gL
8aJ
4b
8bL
8gJ
=
4a
8aL
8gJ
4e
4e
=
2.e
8bL
8aJ
=
4a
8aL
8gJ
4e
8eL
8f#J
=
4g
4a
4b
8aL
8gJ
=
4a
8aL
8gJ
4e
4e
=
2.e
8eL
8f#J
=
4g
4a
8bL
8cc#J
8ddL
8bJ
=
8eeL
8eeJ
4ee
4ee
8bL
8cc#J
=
4dd
4dd
4ee
4a
=
2.b
8cc#L
8bJ
=
4a
8aL
8gJ
4e
8eL
8f#J
=
4g
4a
4b
8aL
8gJ
=
4a
8aL
8gJ
4e
4e
=
2.e
4ryy
=||
*-
